!!!COA:	Josquin des Prez
!!!CDT:	~1450-1521/08/27
!!!OTL@@LAT: Domine exaudi orationem meam auribus
!!!OTL2@@LAT: Memor fui dierum antiquorum
!!!OTL3@@LAT: Spiritus tuus bonus
!!!AGN:	Motet
!!!SCT:	NJE 16.5
!!!SCA:	New Josquin Edition 16.5
!!!voices:	4
**kern	**kern	**kern	**kern
*staff4	*staff3	*staff2	*staff1
*clefF4	*clefGv2	*clefGv2	*clefG2
*Ivox	*Ivox	*Ivox	*Ivox
*I"Bassus	*I"Tenor	*I"Altus	*I"Superius
*I'B	*I'T	*I'A	*I'S
*>[A,B]	*>[A,B]	*>[A,B]	*>[A,B]
*>Part1[A]	*>Part1[A]	*>Part1[A]	*>Part1[A]
*>Part2[B]	*>Part2[B]	*>Part2[B]	*>Part2[B]
*>A	*>A	*>A	*>A
*k[]	*k[]	*k[]	*k[]
*M2/1	*M2/1	*M2/1	*M2/1
*met(C|)	*met(C|)	*met(C|)	*met(C|)
!!section: Prima pars
!!!OMD: Prima pars
=1-	=1-	=1-	=1-
0r	0r	0r	1.b
.	.	.	2b\
=2	=2	=2	=2
0r	0r	0r	1b
.	.	.	1a
=3	=3	=3	=3
0r	0r	1.e	0cc
.	.	2e\	.
=4	=4	=4	=4
0r	0r	1e	0b
.	.	1d	.
=5	=5	=5	=5
0r	0r	0f	1r
.	.	.	1a
=6	=6	=6	=6
0r	0r	0e	1cc
.	.	.	1cc
=7	=7	=7	=7
0r	0r	1r	2b\
.	.	.	2a/
.	.	1d	[1a
=8	=8	=8	=8
0r	0r	1f	1a]
.	.	1f	1dd
=9	=9	=9	=9
0r	0r	2e\	2cc\
.	.	2d\	1b
.	.	[1d	.
.	.	.	4a/
.	.	.	4g/
=10	=10	=10	=10
0r	0r	1d]	2a/
.	.	.	2b\
.	.	1g	1e
=11	=11	=11	=11
0r	0r	2f\	1r
.	.	1e	.
.	.	.	1b
.	.	4d\	.
.	.	4c\	.
=12	=12	=12	=12
0r	0r	2d\	1b
.	.	2e\	.
.	.	1A	2a/
.	.	.	[2cc\
=13	=13	=13	=13
0r	0r	1r	2cc\]
.	.	.	2b\
.	.	1e	1b
=14	=14	=14	=14
0r	0r	1e	2r
.	.	.	2cc\
.	.	2d\	2b\
.	.	[2f\	[2a/
=15	=15	=15	=15
0r	0r	2f\]	2a/]
.	.	2e\	2g/
.	.	1e	2.cc\
.	.	.	4b\
=16	=16	=16	=16
0r	0r	2r	4a/
.	.	.	4g/
.	.	2f\	2a/
.	.	2e\	2g/
.	.	[2d\	2f/
=17	=17	=17	=17
0r	0r	2d\]	1e
.	.	2c\	.
.	.	2.f\	1d
.	.	4e\	.
=18	=18	=18	=18
0r	0r	4d\	1r
.	.	4c\	.
.	.	2d\	.
.	.	2c\	2r
.	.	2B\	2d/
=19	=19	=19	=19
0r	0r	1A	2e/
.	.	.	2f/
.	.	1G	2g/
.	.	.	2d/
=20	=20	=20	=20
0r	0r	1r	2e/
.	.	.	1f
.	.	2r	.
.	.	2G/	2e/
=21	=21	=21	=21
0r	0r	2A/	2.f/
.	.	2B\	.
.	.	.	4g/
.	.	2c\	1e
.	.	2A/	.
=22	=22	=22	=22
0E	0e	2B\	0g
.	.	1c	.
.	.	2B\	.
=23	=23	=23	=23
1E	1e	2.c\	1g
.	.	4d\	.
1E	1e	1B	1g
=24	=24	=24	=24
0AA	0e	[0A	2a/
.	.	.	2.cc\
.	.	.	4b\
.	.	.	4a/
.	.	.	4g/
=25	=25	=25	=25
1D	1.d	0A]	0f
1D	.	.	.
.	2d\	.	.
=26	=26	=26	=26
1F	1c	2r	1.a
.	.	2A/	.
1F	1A	2c\	.
.	.	2d\	2a/
=27	=27	=27	=27
[0E	0B	0e	1.g
.	.	.	2e/
=28	=28	=28	=28
0E]	1r	1c	1.e
.	1E	2c\	.
.	.	[2B\	2d/
=29	=29	=29	=29
0r	1E	2B\]	2.c/
.	.	1A	.
.	.	.	4d/
.	1E	.	1B
.	.	2G#i/	.
=30	=30	=30	=30
1r	0F	1A	0A
1AA	.	1c	.
=31	=31	=31	=31
1AA	0E	1.c	0r
1AA	.	.	.
.	.	4B\	.
.	.	4A/	.
=32	=32	=32	=32
0BB	1r	2G/	1r
.	.	1A	.
.	1B	.	1d
.	.	2G#i/	.
=33	=33	=33	=33
0AA	1c	1A	2c/
.	.	.	1e
.	1A	1r	.
.	.	.	2f/
=34	=34	=34	=34
0r	2B\	0r	1g
.	2.c\	.	.
.	.	.	2g/
.	4B\	.	.
.	[2A/	.	[2f/
=35	=35	=35	=35
0r	2A/]	1r	4f/]
.	.	.	4e/
.	2G/	.	1e
.	1F	1A	.
.	.	.	2d/
=36	=36	=36	=36
0r	0E	1c	0e
.	.	1B	.
=37	=37	=37	=37
0r	1G	2B\	1d
.	.	1B	.
.	1G	.	2d/
.	.	2B\	[2g/
=38	=38	=38	=38
0r	1G	1B	2g/]
.	.	.	4f/
.	.	.	4e/
.	1G	1B	2d/
.	.	.	2g/
=39	=39	=39	=39
0r	0A	0c	2f/
.	.	.	1e
.	.	.	4d/
.	.	.	4c/
=40	=40	=40	=40
1r	0G	0r	0B
1E	.	.	.
=41	=41	=41	=41
1F	1A	0r	0r
1D	1B	.	.
=42	=42	=42	=42
2E\	2.c\	0r	0r
2.F\	.	.	.
.	4B\	.	.
.	4A/	.	.
4E\	4G/	.	.
[2D\	[2F/	.	.
=43	=43	=43	=43
2D\]	2F/]	1A	2r
2C/	1E	.	1A
1BB	.	1B	.
.	2D/	.	2G#i/
=44	=44	=44	=44
0AA	[0E	1.c	1A
.	.	.	[1c
.	.	2d\	.
=45	=45	=45	=45
1C	0E]	2e\	2c/]
.	.	2f\	2d/
1C	.	1g	2e/
.	.	.	2f/
=46	=46	=46	=46
1C	0r	1.c	1g
1C	.	.	2e/
.	.	2B\	2g/
=47	=47	=47	=47
0D	0r	2A/	2f/
.	.	2G/	1e
.	.	1F	.
.	.	.	2d/
=48	=48	=48	=48
1C	2r	0E	0e
.	1G	.	.
2r	.	.	.
[2C/	2G/	.	.
=49	=49	=49	=49
4C/]	2G/	0r	1r
4D\	.	.	.
2E\	2G/	.	.
2F\	2A/	.	2r
2E\	2G/	.	[2g/
=50	=50	=50	=50
1C	1c	2r	2g/]
.	.	1e	2g/
1r	2r	.	2g/
.	2B\	2d\	2g/
=51	=51	=51	=51
0r	2c\	2e\	2a/
.	2B\	2d\	2g/
.	1A	2.e\	1cc
.	.	4f\	.
=52	=52	=52	=52
0r	2r	1d	2r
.	2G/	.	2b\
.	2A/	2.f\	2cc\
.	2G/	.	2b\
.	.	4e\	.
=53	=53	=53	=53
0r	1A	2f\	2a/
.	.	2e\	2cc\
.	1D	2d\	2b\
.	.	[2f\	2a/
=54	=54	=54	=54
0r	1E	4f\]	1g
.	.	4e\	.
.	.	1e	.
.	1F	.	1a
.	.	2d\	.
=55	=55	=55	=55
2r	[0E	1e	0g
2C/	.	.	.
2C/	.	2r	.
2C/	.	2c\	.
=56	=56	=56	=56
1C	0E]	2c\	0r
.	.	2c\	.
2AA/	.	1c	.
2E\	.	.	.
=57	=57	=57	=57
2E\	2r	0B	1r
2E\	2G/	.	.
1E	2G/	.	2r
.	2G/	.	2g/
=58	=58	=58	=58
2C/	1G	1r	2g/
2G\	.	.	2g/
2G\	2E/	2r	1g
2G\	2B\	2g\	.
=59	=59	=59	=59
1G	2B\	2g\	2e/
.	2B\	2g\	2b\
[1E	1B	[1g	2b\
.	.	.	2b\
=60	=60	=60	=60
1E]	2G/	1g]	1b
.	2G/	.	.
2r	1c	2.e\	2g/
[2C/	.	.	2g/
.	.	4d\	.
=61	=61	=61	=61
2C/]	1A	4c\	1cc
.	.	4B\	.
1F	.	1A	.
.	2.d\	.	1a
[2D\	.	[2f\	.
.	4c\	.	.
=62	=62	=62	=62
2D\]	4B\	2f\]	2.dd\
.	4A/	.	.
1G	2B\	2d\	.
.	.	.	4cc\
.	1G	1e	4b\
.	.	.	4a/
2E\	.	.	[2b\
=63	=63	=63	=63
1F	1A	2c\	4b\]
.	.	.	4a/
.	.	2d\	1a
1E	1B	1e	.
.	.	.	2g#i/
=64	=64	=64	=64
1r	0A	0e	0a
2r	.	.	.
[2A\	.	.	.
=65	=65	=65	=65
2A\]	0r	2r	0r
2G\	.	1e	.
2A\	.	.	.
2F\	.	2d\	.
=66	=66	=66	=66
2E\	0r	2e\	0r
2A\	.	2c\	.
2G\	.	2B\	.
2F\	.	[2d\	.
=67	=67	=67	=67
1E	0r	2d\]	0r
.	.	2c\	.
1D	.	2d\	.
.	.	2B\	.
=68	=68	=68	=68
2r	0r	1A	0r
1A	.	.	.
.	.	2r	.
2G\	.	[2e\	.
=69	=69	=69	=69
2A\	0r	2e\]	0r
2F\	.	2d\	.
2E\	.	2e\	.
2A\	.	2c\	.
=70	=70	=70	=70
2G\	0r	2B\	1d
2F\	.	1d	.
1E	.	.	1e
.	.	2c#i\	.
=71	=71	=71	=71
0D	1A	0d	1.f
.	1B	.	.
.	.	.	2d/
=72	=72	=72	=72
0r	1.c	0r	1.e
.	2A/	.	2c/
=73	=73	=73	=73
0r	1B	0r	1d
.	2r	.	[1e
.	2G/	.	.
=74	=74	=74	=74
0r	1A	0r	2e/]
.	.	.	2c/
.	1B	.	1d
=75	=75	=75	=75
0r	2r	0r	1e
.	2G/	.	.
.	1A	.	[1f
=76	=76	=76	=76
0r	1B	0r	2f/]
.	.	.	4e/
.	.	.	4d/
.	[1c	.	1e
=77	=77	=77	=77
1r	2c\]	1r	0d
.	4B\	.	.
.	4A/	.	.
1GG	1B	1G	.
=78	=78	=78	=78
1GG	0G	1B	1r
1GG	.	1B	1d
=79	=79	=79	=79
1GG	1r	1B	1d
1GG	1G	1B	1d
=80	=80	=80	=80
0C	1G	0c	1.e
.	1G	.	.
.	.	.	2d/
=81	=81	=81	=81
0r	1.A	0r	1c
.	.	.	1B
.	2G/	.	.
=82	=82	=82	=82
0r	1F	0r	2A/
.	.	.	1d
.	1E	.	.
.	.	.	2c#i/
=83	=83	=83	=83
1r	[0D	1r	0d
1GG	.	1B	.
=84	=84	=84	=84
1GG	0D]	1B	1r
1GG	.	1B	1d
=85	=85	=85	=85
1GG	1G	1B	1d
1GG	[1G	1B	1d
=86	=86	=86	=86
0C	2G/]	1.c	2.e/
.	2F/	.	.
.	.	.	4d/
.	2E/	.	2c/
.	2D/	2d\	2B/
=87	=87	=87	=87
0r	2C/	2e\	1A
.	2D/	1d	.
.	1E	.	1r
.	.	2c#i\	.
=88	=88	=88	=88
1r	0D	1.d	1r
1D	.	.	1f
.	.	4c\	.
.	.	4B\	.
=89	=89	=89	=89
1D	0r	4A/	1f
.	.	4G/	.
.	.	2B\	.
1D	.	1A	1f
=90	=90	=90	=90
1.E	1r	1G	1.g
.	1G	2E/	.
2D\	.	2F/	2f/
=91	=91	=91	=91
1C	1G	2.G/	1e
.	.	4A/	.
1BB	1G	1B	1d
=92	=92	=92	=92
[0AA	1.A	1c	1c
.	.	2A/	1cc
.	2G/	2B\	.
=93	=93	=93	=93
0AA]	1F	2.c\	1cc
.	.	4d\	.
.	1E	1e	1cc
=94	=94	=94	=94
1r	0D	0f	1.dd
1D	.	.	.
.	.	.	2cc\
=95	=95	=95	=95
1E	1G	2r	1b
.	.	1e	.
1F	1A	.	1a
.	.	2d\	.
=96	=96	=96	=96
0E	2.B\	0e	0g
.	4A/	.	.
.	2B\	.	.
.	[2c\	.	.
=97	=97	=97	=97
1A	2c\]	2c\	1a
.	4B\	2c\	.
.	4A/	.	.
[1G	[1G	2.d\	2.b\
.	.	4c\	4a/
=98	=98	=98	=98
2G\]	1G]	2d\	2b\
4F\	.	1e	1cc
4E\	.	.	.
1F	1A	.	.
.	.	2d\	4b\
.	.	.	4a/
=99	=99	=99	=99
0El	0Bl	0el	0gl
!!LO:LB:i:g=z
=100||	=100||	=100||	=100||
*>B	*>B	*>B	*>B
!!section: Secunda pars: Memor fui dierum antiquorum
!!!OMD: Secunda pars: Memor fui dierum antiquorum
*M2/1	*M2/1	*M2/1	*M2/1
*met(C|)	*met(C|)	*met(C|)	*met(C|)
0C	0c	1e	0g
.	.	1e	.
=101	=101	=101	=101
0C	0c	0e	1g
.	.	.	1g
=102	=102	=102	=102
0F	1c	1.f	1.a
.	1A	.	.
.	.	2c\	2g/
=103	=103	=103	=103
0D	1r	2.d\	2.f/
.	.	4c\	4e/
.	2r	2B\	2d/
.	2A/	2A/	2c/
=104	=104	=104	=104
0r	2G/	1d	2B/
.	2F/	.	2A/
.	2E/	1r	1B
.	2D/	.	.
=105	=105	=105	=105
0r	1E	0r	1.c
.	1F	.	.
.	.	.	4B/
.	.	.	4A/
=106	=106	=106	=106
0GG	0G	0d	[0B
=107	=107	=107	=107
0GG	1r	1d	0B]
.	[1G	1d	.
=108	=108	=108	=108
0C	1G]	1.e	0r
.	1G	.	.
.	.	2d\	.
=109	=109	=109	=109
0AA	2.A/	2c\	0r
.	.	2B\	.
.	4G/	.	.
.	2F/	2A/	.
.	2E/	2G/	.
=110	=110	=110	=110
1r	2D/	2F/	0r
.	2C/	2E/	.
2r	1D	1F	.
2D\	.	.	.
=111	=111	=111	=111
2C/	0r	1G	2r
2BB/	.	.	2d/
2AA/	.	2A/	2c/
2GG/	.	2B\	2B/
=112	=112	=112	=112
1AA	2r	1c	1A
.	2A/	.	.
1BB	2G/	1B	1d
.	2F/	.	.
=113	=113	=113	=113
0C	2E/	1G	2c/
.	2.c\	.	2.e/
.	.	1r	.
.	4B\	.	4d/
.	2A/	.	2c/
=114	=114	=114	=114
0r	2G/	0r	2B/
.	2F/	.	2A/
.	2E/	.	2B/
.	2D/	.	[2d/
=115	=115	=115	=115
1r	1.A	0r	2d/]
.	.	.	2c#i/
[1D	.	.	[1d
.	[2B\	.	.
=116	=116	=116	=116
1D]	2B\]	2r	1d]
.	4A/	2.d\	.
.	4G/	.	.
1D	1A	.	1r
.	.	4e\	.
.	.	2f\	.
=117	=117	=117	=117
2.E\	0G	2.g\	2r
.	.	.	1g
4D\	.	4f\	.
2C/	.	2e\	.
2BB/	.	2d\	2g/
=118	=118	=118	=118
2AA/	0r	2c\	2a/
2GG/	.	2B\	2b\
1AA	.	1A	1cc
=119	=119	=119	=119
2r	2r	1G	0b
1E	1G	.	.
.	.	1r	.
2E\	2G/	.	.
=120	=120	=120	=120
2F\	2A/	0r	0r
2D\	2B\	.	.
2E\	2c\	.	.
2F\	2c\	.	.
=121	=121	=121	=121
0G	0B	2r	2r
.	.	1d	1g
.	.	2e\	2g/
=122	=122	=122	=122
0r	0r	2f\	2a/
.	.	2d\	2b\
.	.	2e\	2cc\
.	.	2f\	2cc\
=123	=123	=123	=123
2r	2r	0g	0b
1E	1G	.	.
2E\	2G/	.	.
=124	=124	=124	=124
2F\	2A/	0r	0r
2D\	2B\	.	.
2E\	1c	.	.
2F\	.	.	.
=125	=125	=125	=125
0G	0B	2r	2r
.	.	1d	1g
.	.	2e\	2g/
=126	=126	=126	=126
0r	0r	2f\	2a/
.	.	2d\	2b\
.	.	2e\	1cc
.	.	2f\	.
=127	=127	=127	=127
2r	2r	1g	0b
1G	1d	.	.
.	.	2r	.
2G\	2d\	[2g\	.
=128	=128	=128	=128
1G	2.B\	2g\]	2r
.	.	2g\	1dd
.	4c\	.	.
2D\	2d\	2f\	.
[2G\	2G/	2d\	2dd\
=129	=129	=129	=129
2G\]	1d	1g	2.b\
4F\	.	.	.
4E\	.	.	4cc\
2D\	2B\	2f\	2dd\
4C/	[2c\	[2e\	[2g/
4D\	.	.	.
=130	=130	=130	=130
4E\	2c\]	2e\]	4g/]
4F\	.	.	4a/
1G	2B\	4d\	4b\
.	.	4c\	4cc\
.	2G/	1d	2b\
2F\	2A/	.	[2a/
=131	=131	=131	=131
1E	2B\	1G	2a/]
.	2c\	.	1g
1D	1A	[1d	.
.	.	.	2f#i/
=132	=132	=132	=132
2.GG/	[0G	2d\]	0g
.	.	2e\	.
4AA/	.	.	.
2BB/	.	2d\	.
[2C/	.	[2e\	.
=133	=133	=133	=133
4C/]	0G]	2e\]	1r
4D\	.	.	.
4E\	.	4d\	.
4F\	.	4c\	.
2.G\	.	1B	1d
4GG/	.	.	.
=134	=134	=134	=134
[0GG	1r	[0B	1d
.	1G	.	1d
=135	=135	=135	=135
0GG]	1G	0B]	1d
.	1G	.	1d
=136	=136	=136	=136
0r	1G	0r	1e
.	1G	.	2d/
.	.	.	[2e/
=137	=137	=137	=137
0r	1A	0r	2e/]
.	.	.	4d/
.	.	.	4c/
.	2G/	.	2B/
.	[2A/	.	2c/
=138	=138	=138	=138
0r	2A/]	0r	2A/
.	4G/	.	2B/
.	4F/	.	.
.	2E/	.	1c
.	2F/	.	.
=139	=139	=139	=139
0r	2D/	0r	2r
.	2E/	.	1c
.	1F	.	.
.	.	.	2d/
=140	=140	=140	=140
0r	2r	0r	2B/
.	1F	.	2c/
.	.	.	2A/
.	2G/	.	2B/
=141	=141	=141	=141
0r	2E/	0r	2c/
.	2F/	.	2A/
.	2D/	.	2B/
.	2E/	.	[2c/
=142	=142	=142	=142
0r	2F/	0r	2c/]
.	2D/	.	2d/
.	2E/	.	1c
.	[2F/	.	.
=143	=143	=143	=143
0r	2F/]	0r	1d
.	2G/	.	.
.	1F	.	1d
=144	=144	=144	=144
0r	1G	0r	2.e/
.	.	.	4d/
.	1G	.	4e/
.	.	.	4f/
.	.	.	[2g/
=145	=145	=145	=145
0r	2.A/	0r	2g/]
.	.	.	2f/
.	4G/	.	.
.	4A/	.	1e
.	4B\	.	.
.	[2c\	.	.
=146	=146	=146	=146
2r	2c\]	2r	1d
2GG/	2B\	2G/	.
2C/	1A	2E/	1r
2D\	.	2F/	.
=147	=147	=147	=147
2E\	0G	2G/	1g
4C/	.	1c	.
4D\	.	.	.
4E\	.	.	1g
4F\	.	.	.
2G\	.	2B\	.
=148	=148	=148	=148
1.F	0r	1c	2.a/
.	.	.	4g/
.	.	1c	4a/
.	.	.	4b\
2E\	.	.	[2cc\
=149	=149	=149	=149
2F\	0r	2.d\	2cc\]
2G\	.	.	2b\
.	.	4c\	.
2F\	.	4d\	2a/
.	.	4e\	.
[2D\	.	[2f\	[2dd\
=150	=150	=150	=150
2D\]	1r	2f\]	2dd\]
2E\	.	2e\	1cc
2F\	1d	1d	.
2G\	.	.	2b\
=151	=151	=151	=151
1E	1.e	0c	0cc
[1A	.	.	.
.	2c\	.	.
=152	=152	=152	=152
2A\]	2c\	2r	1r
2F\	2c\	2f\	.
2F\	[1d	2f\	1a
2F\	.	2f\	.
=153	=153	=153	=153
1.G	2d\]	1d	1.b
.	2B\	.	.
.	1B	2d\	.
2G\	.	[2e\	2g/
=154	=154	=154	=154
1E	1.c	2e\]	2g/
.	.	2e\	2g/
[1F	.	1c	2.a/
.	2A/	.	.
.	.	.	4b\
=155	=155	=155	=155
2F\]	1A	2r	2cc\
2D\	.	2.f\	2.dd\
1D	1r	.	.
.	.	4e\	4cc\
.	.	4d\	4b\
.	.	4c\	4a/
=156	=156	=156	=156
1r	2r	4B\	2b\
.	.	4A/	.
.	2d\	2G/	2b\
2r	2d\	2r	2a/
[2G\	2d\	2g\	2b\
=157	=157	=157	=157
2G\]	1.e	2g\	2g/
2G\	.	2g\	2g/
[1A	.	1e	[1cc
.	2c\	.	.
=158	=158	=158	=158
2A\]	1c	2e\	2cc\]
2F\	.	1f	2a/
1F	[1d	.	1a
.	.	2f\	.
=159	=159	=159	=159
1.G	2d\]	1d	1.b
.	2B\	.	.
.	1B	2r	.
2E\	.	2e\	2g/
=160	=160	=160	=160
1E	1.c	2e\	1g
.	.	2e\	.
[1F	.	1c	2.a/
.	2A/	.	.
.	.	.	4b\
=161	=161	=161	=161
2F\]	1A	2c\	2cc\
2D\	.	2.f\	2.dd\
1D	1r	.	.
.	.	4e\	4cc\
.	.	2d\	4b\
.	.	.	4a/
=162	=162	=162	=162
0r	0r	2d\	2b\
.	.	2c\	1a
.	.	1B	.
.	.	.	2g#i/
=163	=163	=163	=163
2r	2r	2A/	[0a
1D	2.A/	1f	.
.	4B\	.	.
2C/	2c\	2e\	.
=164	=164	=164	=164
1D	2A/	1f	0a_
.	1d	.	.
1A	.	1e	.
.	2c#i\	.	.
=165	=165	=165	=165
2r	0d	2r	0a]
1D	.	1f	.
2D\	.	2f\	.
=166	=166	=166	=166
2.A\	2.c\	2.e\	0r
4G\	4B\	4d\	.
2F\	2A/	2d\	.
2E\	2G/	2c#i\	.
=167	=167	=167	=167
[0D	0A	1.d	1r
.	.	.	2r
.	.	4c\	2d/
.	.	4B\	.
=168	=168	=168	=168
0D]	1r	[0A	2.f/
.	.	.	4f/
.	2r	.	2f/
.	2A/	.	2f/
=169	=169	=169	=169
0AA	2.c\	0A]	1e
.	4c\	.	.
.	2c\	.	[1a
.	2c\	.	.
=170	=170	=170	=170
0r	1B	0r	2a/]
.	.	.	2g/
.	[1d	.	[1f
=171	=171	=171	=171
0r	2d\]	0r	2f/]
.	2c\	.	2e/
.	2B\	.	2d/
.	2A/	.	2c/
=172	=172	=172	=172
1r	2G/	0r	2B/
.	2F/	.	2A/
2r	2E/	.	1B
2D\	2D/	.	.
=173	=173	=173	=173
2.F\	0A	1.c	1A
4F\	.	.	.
2F\	.	.	1r
2F\	.	2d\	.
=174	=174	=174	=174
1E	0r	1.e	0r
[1A	.	.	.
.	.	2d\	.
=175	=175	=175	=175
2A\]	0r	2c\	1cc
2G\	.	2B\	.
2F\	.	2A/	1cc
2E\	.	2G/	.
=176	=176	=176	=176
2D\	1r	2F/	1.dd
2C/	.	2E/	.
2BB/	1d	1D	.
2AA/	.	.	2cc\
=177	=177	=177	=177
2GG/	1d	1G	2.b\
1G	.	.	.
.	.	.	4a/
.	[1e	1E	2.g/
2G\	.	.	.
.	.	.	4f/
=178	=178	=178	=178
1.A	2e\]	0r	1e
.	2d\	.	.
.	2c\	.	1e
2G\	2B\	.	.
=179	=179	=179	=179
2F\	2A/	1r	0a
2E\	2G/	.	.
2D\	2F/	2r	.
2C/	[2E/	[2A/	.
=180	=180	=180	=180
1BB	2E/]	2A/]	1b
.	2D/	2G/	.
1AA	2E/	2A/	2.cc\
.	2A/	2c\	.
.	.	.	4a/
=181	=181	=181	=181
0r	2G/	2d\	2b\
.	2E/	1e	1cc
.	1F	.	.
.	.	2d\	4b\
.	.	.	4a/
=182	=182	=182	=182
1r	0E	[0e	[0g
1E	.	.	.
=183	=183	=183	=183
1E	1r	0e]	0g]
[1E	1B	.	.
=184	=184	=184	=184
1E]	1B	0r	0r
2D\	[1B	.	.
[2G\	.	.	.
=185	=185	=185	=185
2G\]	1B]	0r	0r
4F\	.	.	.
4E\	.	.	.
1F	2A/	.	.
.	[2d\	.	.
=186	=186	=186	=186
1E	2d\]	0r	0r
.	4c\	.	.
.	4B\	.	.
1E	1c	.	.
=187	=187	=187	=187
2D\	1B	0r	0r
2G\	.	.	.
2G\	1B	.	.
2G\	.	.	.
=188	=188	=188	=188
2F\	2A/	0r	0r
2F\	2d\	.	.
2.G\	2d\	.	.
.	2d\	.	.
4F\	.	.	.
=189	=189	=189	=189
4E\	2c\	0r	0r
4D\	.	.	.
2E\	2c\	.	.
2.F\	2.d\	.	.
4E\	4c\	.	.
=190	=190	=190	=190
2D\	4B\	0r	0r
.	4A/	.	.
2C/	1A	.	.
1BB	.	.	.
.	2G#i/	.	.
=191	=191	=191	=191
0AA	0A	1r	0r
.	.	1e	.
=192	=192	=192	=192
0E	[0G	1e	1r
.	.	[1e	1b
=193	=193	=193	=193
0r	0G]	1e]	1b
.	.	2d\	[1b
.	.	[2g\	.
=194	=194	=194	=194
0r	0r	2g\]	1b]
.	.	4f\	.
.	.	4e\	.
.	.	1f	2a/
.	.	.	[2dd\
=195	=195	=195	=195
0r	0r	1e	2dd\]
.	.	.	4cc\
.	.	.	4b\
.	.	1e	1cc
=196	=196	=196	=196
0r	0r	2d\	1b
.	.	2g\	.
.	.	2g\	1b
.	.	2g\	.
=197	=197	=197	=197
0r	0r	2f\	2a/
.	.	2f\	2dd\
.	.	2.g\	2dd\
.	.	.	2dd\
.	.	4f\	.
=198	=198	=198	=198
0r	0r	4e\	2cc\
.	.	4d\	.
.	.	2e\	2cc\
.	.	2.f\	2.dd\
.	.	4e\	4cc\
=199	=199	=199	=199
0r	0r	2d\	4b\
.	.	.	4a/
.	.	2c\	1a
.	.	1B	.
.	.	.	2g#i/
=200	=200	=200	=200
1F	1r	0A	0a
2F\	1c	.	.
2F\	.	.	.
=201	=201	=201	=201
2E\	2c\	0r	0r
2C/	2c\	.	.
2D\	2B\	.	.
2E\	2G/	.	.
=202	=202	=202	=202
0F	2A/	1f	1r
.	2B\	.	.
.	[1c	2f\	1cc
.	.	2f\	.
=203	=203	=203	=203
0r	1c]	2e\	2cc\
.	.	2c\	2cc\
.	1r	2d\	2b\
.	.	2e\	2g/
=204	=204	=204	=204
1F	1r	0f	2a/
.	.	.	2b\
2F\	1c	.	[1cc
2F\	.	.	.
=205	=205	=205	=205
2.C/	2c\	0r	1cc]
.	2c\	.	.
4D\	.	.	.
4E\	2.G/	.	1r
4F\	.	.	.
[2G\	.	.	.
.	4A/	.	.
=206	=206	=206	=206
2G\]	4B\	0r	0r
.	4c\	.	.
2F\	1d	.	.
2G\	.	.	.
2E\	2c\	.	.
=207	=207	=207	=207
1D	2d\	1f	1r
.	2B\	.	.
1r	1A	2f\	1cc
.	.	2f\	.
=208	=208	=208	=208
0r	0r	2.c\	2cc\
.	.	.	2cc\
.	.	4d\	.
.	.	4e\	2.g/
.	.	4f\	.
.	.	[2g\	.
.	.	.	4a/
=209	=209	=209	=209
0r	1r	2g\]	4b\
.	.	.	4cc\
.	.	2f\	1dd
.	2r	2g\	.
.	2A/	2e\	2cc\
=210	=210	=210	=210
1r	2B\	0d	2dd\
.	1G	.	2b\
2r	.	.	1a
2D\	2F/	.	.
=211	=211	=211	=211
2E\	0G	1r	2r
1C	.	.	2g/
.	.	2r	2e/
2BB/	.	2d\	[2g/
=212	=212	=212	=212
1C	1r	2e\	4g/]
.	.	.	4f/
.	.	1c	2e/
1r	2r	.	1d
.	2G/	2B\	.
=213	=213	=213	=213
2r	1A	1c	1c
2C/	.	.	.
1D	[1B	1r	1r
=214	=214	=214	=214
1.E	2B\]	0r	0r
.	2G/	.	.
.	1G	.	.
2C/	.	.	.
=215	=215	=215	=215
1C	1.c	0r	0r
[1F	.	.	.
.	2A/	.	.
=216	=216	=216	=216
2F\]	1A	0r	0r
2D\	.	.	.
1D	2.d\	.	.
.	4c\	.	.
=217	=217	=217	=217
2.G\	2B\	0r	0r
.	2A/	.	.
4F\	.	.	.
2E\	2G/	.	.
2D\	2F/	.	.
=218	=218	=218	=218
2C/	2E/	1r	1g
2BB/	2D/	.	.
1AA	1A	1c	1a
=219	=219	=219	=219
1GG	1D	1d	1.b
1r	1r	[1e	.
.	.	.	2g/
=220	=220	=220	=220
0r	0r	2e\]	1g
.	.	2c\	.
.	.	1c	[1cc
=221	=221	=221	=221
0r	0r	1.f	2cc\]
.	.	.	2a/
.	.	.	1a
.	.	2d\	.
=222	=222	=222	=222
0r	0r	1d	2.dd\
.	.	.	4cc\
.	.	2.g\	2b\
.	.	.	2a/
.	.	4f\	.
=223	=223	=223	=223
0r	0r	2e\	2g/
.	.	2d\	2f/
.	.	2c\	4e/
.	.	.	4d/
.	.	2B\	[2g/
=224	=224	=224	=224
1D	1d	1A	2g/]
.	.	.	2f#i/
1E	1B	[1G	[1g
=225	=225	=225	=225
1E	1c	1G]	2g/]
.	.	.	2e/
1D	1d	2r	[1f
.	.	2D/	.
=226	=226	=226	=226
2r	1d	2D/	1f]
2BB/	.	2D/	.
1C	2.c\	1G	1e
.	4B\	.	.
=227	=227	=227	=227
1C	4A/	2r	2r
.	4G/	.	.
.	1G	2G/	2cc\
1D	.	2d\	2a/
.	2F#i/	2d\	2a/
=228	=228	=228	=228
2GG/	1G	2d\	2g/
1G	.	2g\	2b\
.	1A	2e\	1cc
2F\	.	2f\	.
=229	=229	=229	=229
2G\	1G	2d\	2b\
2E\	.	2e\	2g/
2D\	2.d\	2f\	2a/
[2G\	.	2g\	2b\
.	4c\	.	.
=230	=230	=230	=230
2G\]	2B\	2e\	2g/
2F\	2c\	2f\	2a/
2G\	2B\	2d\	2d/
2E\	2G/	2c\	[2g/
=231	=231	=231	=231
1D	1A	1d	2g/]
.	.	.	2f#i/
[1C	2r	2r	[1g
.	2c\	2e\	.
=232	=232	=232	=232
1C]	2c\	2e\	1g]
.	2c\	2e\	.
1r	1B	1d	1r
=233	=233	=233	=233
2r	0A	2.c\	2r
2F\	.	.	2a/
.	.	4B\	.
2F\	.	2c\	2a/
2F\	.	[2d\	2a/
=234	=234	=234	=234
1E	1r	2d\]	1g
.	.	2c\	.
[1D	2r	2.d\	[1f
.	2A/	.	.
.	.	4c\	.
=235	=235	=235	=235
1D]	2A/	4d\	1f]
.	.	4e\	.
.	2A/	1f	.
1r	1G	.	1r
.	.	2e\	.
=236	=236	=236	=236
2r	1A	1.f	2r
2F\	.	.	2a/
2F\	2r	.	2a/
2F\	[2c\	4e\	2a/
.	.	4d\	.
=237	=237	=237	=237
1C	2c\]	1e	1g
.	2c\	.	.
[1D	1A	[1d	[1f
=238	=238	=238	=238
1D]	1.d	1d]	0f]
2r	.	1r	.
[2F\	4c\	.	.
.	4B\	.	.
=239	=239	=239	=239
2F\]	1A	0r	2r
2F\	.	.	1f
1D	1A	.	.
.	.	.	2d/
=240	=240	=240	=240
1.G	1B	0r	1d
.	2r	.	[1g
2E\	[2B\	.	.
=241	=241	=241	=241
1E	2B\]	0r	2g/]
.	2B\	.	4f/
.	.	.	4e/
2r	1B	.	1d
[2G\	.	.	.
=242	=242	=242	=242
2G\]	1B	2r	1d
2G\	.	1G	.
2.C/	1c	.	1e
.	.	2G/	.
4D\	.	.	.
=243	=243	=243	=243
2E\	2B\	2G/	2r
1AA	1c	1A	1e
2E\	[2B\	2G/	2e/
=244	=244	=244	=244
2C/	2B\]	1E	1e
2AA/	2A/	.	.
1E	1B	2r	1e
.	.	2G/	.
=245	=245	=245	=245
0r	0r	2A/	1f
.	.	2B\	.
.	.	4c\	2e/
.	.	4B\	.
.	.	4A/	[2f/
.	.	4G/	.
=246	=246	=246	=246
0r	0r	2A/	2f/]
.	.	2G/	1e
.	.	1F	.
.	.	.	2d/
=247	=247	=247	=247
2r	2r	[0E	0e
1C	1G	.	.
2C/	2G/	.	.
=248	=248	=248	=248
1C	1G	0E]	2r
.	.	.	1c
1C	1G	.	.
.	.	.	[2c/
=249	=249	=249	=249
1F	1A	0r	2c/]
.	.	.	2d/
2E\	2G/	.	2e/
2D\	[2A/	.	2f/
=250	=250	=250	=250
2C/	2A/]	2r	1g
2BB/	1G	2B\	.
1AA	.	1c	1a
.	2F#i/	.	.
=251	=251	=251	=251
[0GG	[0G	2B\	1d
.	.	4G/	.
.	.	4A/	.
.	.	4B\	2.g/
.	.	4c\	.
.	.	[2d\	.
.	.	.	4f/
=252	=252	=252	=252
0GG]	0G]	2d\]	2.e/
.	.	2c\	.
.	.	.	8d/L
.	.	.	8c/J
.	.	2c\	1d
.	.	2B\	.
=253	=253	=253	=253
1r	2r	2.c\	2e/
.	1E	.	1g
.	.	8B/L	.
.	.	8A/J	.
2r	.	1B	.
[2G\	2E/	.	2g/
=254	=254	=254	=254
4G\]	1E	2r	1g
4F\	.	.	.
4E\	.	1e	.
4D\	.	.	.
2.C/	1E	.	1g
.	.	2e\	.
4BB/	.	.	.
=255	=255	=255	=255
2AA/	1F	2c\	2.a/
2D\	.	2d\	.
.	.	.	4b\
2C/	2E/	2.e\	2cc\
[2D\	[2F/	.	2a/
.	.	8d\L	.
.	.	8c\J	.
=256	=256	=256	=256
2D\]	2F/]	2B\	2b\
2C/	1E	1A	2cc\
1BB	.	.	1dd
.	2D/	2G#i/	.
=257	=257	=257	=257
0AAl	0El	0Al	0ccl
!!LO:LB:i:g=z
=258||	=258||	=258||	=258||
*>C	*>C	*>C	*>C
!!section: Tertia pars: Spiritus tuus bonus
!!!OMD: Tertia pars: Spiritus tuus bonus
*M2/1	*M2/1	*M2/1	*M2/1
*met(C|)	*met(C|)	*met(C|)	*met(C|)
[0AA	0A	[0e	[0cc
=259	=259	=259	=259
1AA]	1A	1e]	1cc]
1AA	1A	1e	1cc
=260	=260	=260	=260
1AA	1A	0e	0cc
[1C	2E/	.	.
.	[2A/	.	.
=261	=261	=261	=261
1C]	2A/]	1e	1cc
.	4G/	.	.
.	4F/	.	.
1C	1G	1e	1cc
=262	=262	=262	=262
0D	1F	0d	0a
.	2r	.	.
.	2F/	.	.
=263	=263	=263	=263
0D	1F	1d	0a
.	1F	2r	.
.	.	2d\	.
=264	=264	=264	=264
1r	0G	1d	1r
1GG	.	2d\	1b
.	.	[2e\	.
=265	=265	=265	=265
1GG	1r	2e\]	1b
.	.	4d\	.
.	.	4c\	.
1GG	1G	2d\	1b
.	.	[2e\	.
=266	=266	=266	=266
1AA	2E/	4e\]	0cc
.	.	4d\	.
.	1F	4c\	.
.	.	4B\	.
1AA	.	1A	.
.	4E/	.	.
.	4D/	.	.
=267	=267	=267	=267
1.C	1E	1G	1r
.	[1A	[1c	1cc
2BB/	.	.	.
=268	=268	=268	=268
1AA	2A/]	2c\]	1.cc
.	2B\	2d\	.
1AA	1c	2e\	.
.	.	2f\	2a/
=269	=269	=269	=269
0GG	0B	1g	1.dd
.	.	2d\	.
.	.	[2g\	2cc\
=270	=270	=270	=270
0r	0r	2g\]	2b\
.	.	2f\	2a/
.	.	2e\	2g/
.	.	2d\	2f/
=271	=271	=271	=271
0r	0r	2c\	2e/
.	.	2B\	1d
.	.	1A	.
.	.	.	2c/
=272	=272	=272	=272
1r	1r	0G	[0d
1GG	1B	.	.
=273	=273	=273	=273
3%4GGV	1B	1r	0d]
.	1B	1G	.
3%2GGZ	.	.	.
=274	=274	=274	=274
3%4CV	0c	2G/	1r
.	.	2G/	.
.	.	2G/	1e
3%2CZ	.	.	.
.	.	2G/	.
=275	=275	=275	=275
1AA	0c	1.A	1e
1AA	.	.	1e
.	.	2G/	.
=276	=276	=276	=276
1r	1A	2F/	0f
.	.	2E/	.
1D	1A	1D	.
=277	=277	=277	=277
3%4DV	1.d	1r	0f
.	.	1d	.
3%2DZ	.	.	.
.	2c\	.	.
=278	=278	=278	=278
3%4GV	2B\	2d\	1d
.	2A/	2d\	.
.	1G	2d\	1d
3%2GZ	.	.	.
.	.	2d\	.
=279	=279	=279	=279
1E	0r	1.e	1.g
1E	.	.	.
.	.	2d\	2f/
=280	=280	=280	=280
1.A	1r	2c\	2e/
.	.	2B\	2d/
.	1A	1A	1c
2G\	.	.	.
=281	=281	=281	=281
2F\	1A	1r	0r
2E\	.	.	.
1D	1A	1d	.
=282	=282	=282	=282
0r	1.d	1.f	1r
.	.	.	1d
.	2c\	2e\	.
=283	=283	=283	=283
1r	2B\	2d\	1d
.	2A/	2c\	.
1G	2G/	2B\	1d
.	2F/	2A/	.
=284	=284	=284	=284
1G	2.E/	2G/	1.g
.	.	2g\	.
.	4D/	.	.
1G	[1C	[1g	.
.	.	.	2f/
=285	=285	=285	=285
1.c	0C]	2g\]	2e/
.	.	2f\	2d/
.	.	2e\	1e
2B\	.	2d\	.
=286	=286	=286	=286
2A\	0c	2c\	1a
2G\	.	2B\	.
2F\	.	2A/	1a
2E\	.	2G/	.
=287	=287	=287	=287
2D\	1.d	2F/	1a
2C/	.	2E/	.
2BB/	.	1D	[1dd
2AA/	2c\	.	.
=288	=288	=288	=288
0GG	2B\	[0G	2dd\]
.	2A/	.	2cc\
.	2G/	.	2b\
.	2F/	.	2a/
=289	=289	=289	=289
1B	2E/	1G]	2g/
.	2D/	.	2f/
2.c\	1C	2r	2e/
.	.	2G/	2d/
4B\	.	.	.
=290	=290	=290	=290
2A\	0c	1.A	2c/
2G\	.	.	2B/
2F\	.	.	1A
2E\	.	2G/	.
=291	=291	=291	=291
2D\	1.d	2F/	1a
2C/	.	2E/	.
1BB	.	4D/	1b
.	.	4E/	.
.	2d\	4F/	.
.	.	4G/	.
=292	=292	=292	=292
2AA/	2.c\	4A/	1.cc
.	.	4B\	.
1A	.	4c\	.
.	4B\	4d\	.
.	2c\	4e\	.
.	.	4f\	.
2G\	2d\	2g\	[2b\
=293	=293	=293	=293
1F	1A	2c\	4b\]
.	.	.	4a/
.	.	2d\	1a
1E	1B	[1e	.
.	.	.	2g#i/
=294	=294	=294	=294
1r	0A	2e\]	[0a
.	.	2c\	.
1F	.	1c	.
=295	=295	=295	=295
1F	2r	1f	1a]
.	2c\	.	.
2.C/	1c	[1e	2r
.	.	.	2g/
4D\	.	.	.
=296	=296	=296	=296
2.E\	2.G/	1e]	1g
4F\	4A/	.	.
2.G\	2.B\	1r	2.d/
4F\	4c\	.	4e/
=297	=297	=297	=297
2.D\	2.d\	2r	2.f/
.	.	2f\	.
4E\	4c\	.	4g/
1F	2.A/	2f\	2.a/
.	.	2f\	.
.	4B\	.	4g/
=298	=298	=298	=298
2r	1c	1e	2.e/
2C/	.	.	.
.	.	.	4f/
2C/	2r	2e\	1g
2C/	2G/	2e\	.
=299	=299	=299	=299
1BB	2G/	2d\	2r
.	2G/	2B\	2g/
1AA	1F	2c\	2a/
.	.	4A/	2a/
.	.	4B\	.
=300	=300	=300	=300
2r	1E	4c\	1g
.	.	4d\	.
2C/	.	2e\	.
2C/	2r	2r	1e
2C/	2G/	2e\	.
=301	=301	=301	=301
1BB	2G/	2d\	2r
.	2G/	2B\	2g/
1AA	1F	2c\	2a/
.	.	4A/	2a/
.	.	4B\	.
=302	=302	=302	=302
0r	1E	4c\	1g
.	.	4d\	.
.	.	1e	.
.	1r	.	1f
.	.	2d\	.
=303	=303	=303	=303
2r	2r	0e	1e
2A\	2c\	.	.
2.A\	2.c\	.	1r
4G\	4B\	.	.
=304	=304	=304	=304
2A\	2c\	0r	0r
2G\	2B\	.	.
2E\	2c\	.	.
2F\	2A/	.	.
=305	=305	=305	=305
2G\	2B\	0r	0r
2E\	1c	.	.
1F	.	.	.
.	4B\	.	.
.	4A/	.	.
=306	=306	=306	=306
0E	1c	2r	2r
.	.	2e\	2g/
.	1B	2.e\	2.g/
.	.	4d\	4g/
=307	=307	=307	=307
0r	0r	2e\	2g/
.	.	2d\	2f/
.	.	2B\	2g/
.	.	2c\	2e/
=308	=308	=308	=308
0r	0r	2d\	2f/
.	.	2B\	1g
.	.	1c	.
.	.	.	4f/
.	.	.	4e/
=309	=309	=309	=309
2r	2r	2B\	2d/
2A\	2c\	2e\	2c/
2.A\	2.c\	1e	1cc
4G\	4B\	.	.
=310	=310	=310	=310
2A\	2c\	2f\	2a/
2G\	2B\	1g	2b\
2E\	2c\	.	2g/
2F\	2A/	2f\	2a/
=311	=311	=311	=311
2G\	2B\	2d\	2g/
2E\	1c	1e	2g/
1F	.	.	2a/
.	4B\	2d\	2a/
.	4A/	.	.
=312	=312	=312	=312
[0E	1B	1e	0g
.	1c	2r	.
.	.	2e\	.
=313	=313	=313	=313
0E]	0B	1.e	2r
.	.	.	2g/
.	.	.	[1g
.	.	4d\	.
.	.	4c\	.
=314	=314	=314	=314
0r	0r	2B\	2g/]
.	.	2c\	4f/
.	.	.	4e/
.	.	2.d\	2f/
.	.	.	[2d/
.	.	4c\	.
=315	=315	=315	=315
0r	0r	4B\	2d/]
.	.	4A/	.
.	.	2G/	1g
.	.	1A	.
.	.	.	2f#i/
=316	=316	=316	=316
2r	2r	0G	0g
2C/	2c\	.	.
2.C/	[1c	.	.
4D\	.	.	.
=317	=317	=317	=317
2E\	2c\]	0r	1r
2F\	4B\	.	.
.	4A/	.	.
2.G\	2B\	.	2r
.	[2G/	.	2d/
4F\	.	.	.
=318	=318	=318	=318
4E\	2G/]	1r	1e
4D\	.	.	.
2C/	1c	.	.
1D	.	2r	1f
.	2B\	2d\	.
=319	=319	=319	=319
0C	0c	2.e\	2e/
.	.	.	2.g/
.	.	4d\	.
.	.	2.c\	.
.	.	.	4f/
.	.	.	4g/
.	.	4B\	4e/
=320	=320	=320	=320
0r	0r	2A/	2f/
.	.	2G/	1e
.	.	1F	.
.	.	.	2d/
=321	=321	=321	=321
2r	2r	[0E	[0e
1C	2G/	.	.
.	1A	.	.
[2AA/	.	.	.
=322	=322	=322	=322
2AA/]	1B	0E]	0e]
2GG/	.	.	.
1AA	2A/	.	.
.	[2c\	.	.
=323	=323	=323	=323
1E	4c\]	0r	0r
.	4B\	.	.
.	4c\	.	.
.	4A/	.	.
2D\	2B\	.	.
2C/	[2A/	.	.
=324	=324	=324	=324
1BB	2A/]	1r	1r
.	2G#i/	.	.
1AA	1A	[1e	[1cc
=325	=325	=325	=325
1.A	1A	2e\]	2cc\]
.	.	2e\	2cc\
.	1r	1e	1cc
2A\	.	.	.
=326	=326	=326	=326
1A	1.e	1c	1cc
1G	.	[1g	1b
.	2e\	.	.
=327	=327	=327	=327
1E	1e	0g]	2r
.	.	.	1b
2r	1d	.	.
[2G\	.	.	2b\
=328	=328	=328	=328
2G\]	1B	2r	1b
2G\	.	1d	.
1G	2r	.	1b
.	[2d\	2d\	.
=329	=329	=329	=329
1F	2d\]	1f	1a
.	2d\	.	.
1D	1d	1f	2r
.	.	.	[2a/
=330	=330	=330	=330
2r	1c	1f	2a/]
1F	.	.	2a/
.	1A	2r	1a
2F\	.	[2c\	.
=331	=331	=331	=331
1F	2r	2c\]	1a
.	1c	2c\	.
1E	.	1e	1g
.	2c\	.	.
=332	=332	=332	=332
1C	1c	1e	2r
.	.	.	1g
2r	1B	2.d\	.
[2G\	.	.	2g/
.	.	4c\	.
=333	=333	=333	=333
2G\]	1G	2d\	1g
2E\	.	2e\	.
1F	2r	2c\	1a
.	[2d\	2f\	.
=334	=334	=334	=334
1G	2d\]	2d\	1g
.	2B\	1e	.
2C/	1c	.	2r
[2F\	.	2A/	[2a/
=335	=335	=335	=335
2F\]	1d	1f	2a/]
2D\	.	.	2f/
1E	2G/	1e	1g
.	[2c\	.	.
=336	=336	=336	=336
1F	2c\]	1c	1a
.	2A/	.	.
1G	1B	2r	1d
.	.	2g\	.
=337	=337	=337	=337
0C	1.c	2.g\	2.e/
.	.	4f\	4d/
.	.	4e\	4e/
.	.	4d\	4f/
.	2B\	2e\	2g/
=338	=338	=338	=338
0D	2A/	1.A	2f/
.	2G/	.	1e
.	1F	.	.
.	.	2B\	2d/
=339	=339	=339	=339
2r	[0El	1c	[0el
1AA	.	.	.
.	.	2r	.
2AA/	.	[2c\	.
=340	=340	=340	=340
1AA	0E_	2c\]	0e_
.	.	2c\	.
1AA	.	2c\	.
.	.	2c\	.
=341	=341	=341	=341
0El	0E]	0Bl	0e]
==	==	==	==
*-	*-	*-	*-
!!!RDF**kern: l=long note in original notation
!!!RDF**kern: i=editorial accidental
!!!ENC:	Jesse Rodin; Victoria Chang 2011/05/20
!!!END:	2011/05/20/
!!!EED:	Jesse Rodin
!!!EEV:	2011/10/20/
!!attribution-level@Jos: 4 (questionable)
!!!ONB:	Translated from MusicXML and edited on 2011/10/20/ by Craig Sapp
!!muse2ps: u^(2) @{OTL2} (3) @{OTL3}^C^@{COA}?\n@{SCT}^i2I150v90,90,90,150Q8c180
